public/icons/uniswap.svg

<svg width="73" height="74" viewBox="0 0 73 74" fill="none" xmlns="http://www.w3.org/2000/svg">
<circle cx="33" cy="35" r="32" fill="white"/>
<path d="M11.6714 11.1592C9.40314 7.46112 7.14228 3.77638 4.88142 0.0931162C4.92293 0.0620774 4.96444 0.0310387 5.00447 0C5.34101 0.393157 5.6894 0.777446 6.01407 1.18095C8.43356 4.17397 10.7878 7.2202 13.28 10.1511C15.8507 13.1737 18.5548 16.0854 21.2011 19.0445C23.0157 21.0738 24.8348 23.0972 26.6435 25.131C27.4159 26.0001 27.3833 26.915 26.5842 27.7915C25.6591 28.8054 24.4301 29.1128 23.1388 29.24C21.5866 29.3922 20.614 30.248 20.3664 31.7925C20.2701 32.3956 20.2182 33.0075 20.1841 33.6179C20.1055 35.0161 19.6415 36.2917 19.0277 37.5332C18.6808 38.2338 18.3309 38.9447 18.0967 39.6882C17.3895 41.9348 18.1471 43.9686 20.1945 45.4673C20.7282 45.8575 21.296 46.2048 21.8208 46.6083C23.3552 47.7878 23.4442 49.5881 22.015 50.9005C20.5636 52.2337 18.7579 52.853 16.9018 53.3836C16.2865 53.5595 16.0034 53.4413 15.7291 52.856C15.3896 52.1288 14.8944 51.4755 14.4749 50.7853C13.3111 48.8727 12.684 46.802 13.3111 44.6174C13.6224 43.5311 14.3311 42.5097 15.0368 41.5934C16.4763 39.7266 18.027 37.9323 18.7712 35.6561C19.1107 34.62 19.256 33.5159 19.4354 32.434C19.6504 31.1318 19.9973 29.9258 20.9802 28.9429C21.6325 28.2911 21.6859 27.456 21.2337 26.6357C19.4814 23.4623 17.7691 20.2668 15.9411 17.1393C15.2947 16.0337 14.3592 15.0952 13.4075 14.1581C13.486 14.3325 13.5527 14.5128 13.6461 14.6798C15.8773 18.706 18.11 22.7322 20.3427 26.7569C20.8245 27.6245 20.7904 27.9082 20.1129 28.6354C19.0722 29.7514 18.6704 31.1466 18.5711 32.5995C18.371 35.5113 16.9418 37.8259 15.2043 40.034C14.3592 41.1086 13.4252 42.1713 12.8471 43.3877C11.6447 45.9181 12.2333 48.4086 13.4994 50.7734C14.0183 51.743 14.6216 52.6683 15.1613 53.629C15.314 53.8995 15.3763 54.2202 15.4934 54.5572C17.7824 55.0701 20.0685 55.3435 22.2166 53.9423C22.3664 53.8448 22.5902 53.8034 22.7726 53.8182C25.1817 54.0177 27.3121 54.8055 28.9429 56.69C29.438 57.262 29.9703 57.8207 30.5663 58.2804C31.8116 59.2396 33.4261 59.2529 34.6195 58.4016C35.8544 57.5192 36.0813 55.6746 34.9872 54.6237C35.085 54.9799 35.1769 55.2371 35.2244 55.5031C35.4897 56.993 34.1732 58.2227 32.7011 57.868C31.4439 57.5665 30.6152 56.4742 30.6537 55.1721C30.6863 54.0266 31.5032 53.1486 32.8004 52.9284C34.2296 52.686 35.4942 53.1812 36.3733 54.232C37.1917 55.209 37.7654 56.3959 38.3985 57.5177C38.8062 58.2405 39.0715 59.0445 39.4985 59.754C41.1204 62.444 43.7904 63.0456 46.4323 61.3177C48.0453 60.2624 49.8228 59.4273 51.1112 57.9212C51.2164 57.7985 51.3973 57.735 51.5485 57.6566C55.9442 55.348 57.9011 50.2679 56.1606 45.6314C55.5365 43.9686 54.3935 42.6782 52.9317 41.7234C51.3736 40.7065 49.7502 39.7828 48.1135 38.8915C46.9393 38.253 45.8852 37.5539 45.5413 36.1498C45.5279 36.1601 45.5739 36.1069 45.5932 36.1158C48.3255 37.3292 51.0919 38.4747 53.7753 39.7902C55.4209 40.5972 56.7107 41.8491 57.0887 43.7749C57.1539 44.1031 57.1806 44.4386 57.2518 44.9633C57.8893 44.1991 58.1843 43.4439 58.3681 42.6546C59.1924 39.1384 58.5668 35.9813 55.8849 33.4154C54.2793 31.8797 52.2735 31.0609 50.1223 30.6367C48.029 30.2243 45.9149 29.9213 43.8127 29.5503C43.356 29.4705 42.9068 29.3316 42.4665 29.1794C40.8876 28.6369 39.5222 27.8816 39.4926 25.9395C39.9284 26.2055 40.4117 26.5455 40.9336 26.8101C42.9469 27.8255 45.1262 28.1433 47.344 28.294C48.6413 28.3827 49.9429 28.4477 51.2342 28.6C52.8605 28.7921 54.1444 29.5814 55.0043 31.0018C55.0547 31.0845 55.1199 31.1584 55.1807 31.2323C55.1926 31.2471 55.2237 31.2456 55.4624 31.3136C55.2326 30.4652 55.1288 29.6775 54.8145 28.9843C52.3698 23.5761 48.2232 20.2875 42.3109 19.4642C40.517 19.2144 38.646 19.4495 36.8151 19.544C36.2473 19.5736 35.8693 19.5056 35.4897 19.0504C33.81 17.0388 31.8412 15.3878 29.2498 14.7064C28.1972 14.43 27.0719 14.4138 25.9778 14.3015C25.6294 14.266 25.33 14.3502 25.3967 14.8247C25.41 14.9222 25.3344 15.0375 25.281 15.1366C25.1402 15.4011 24.8763 15.6539 24.86 15.9229C24.7117 18.3587 25.4056 20.5624 26.8036 22.5548C26.9281 22.7307 27.0467 22.911 27.2439 23.1992C26.2892 22.8815 25.4901 22.5799 24.8733 21.8926C21.8445 18.5183 18.8024 15.1543 15.7602 11.7903C15.0872 11.0468 14.3993 10.3167 13.7173 9.57914C24.7503 0.175886 44.7081 -2.28356 59.5023 10.1275C74.8138 22.9716 76.8657 45.6373 64.1708 60.8595C51.2461 76.3626 28.6019 78.29 13.3986 65.8849C4.89476 58.9455 0.367117 49.8748 0.0202053 38.9122C-0.325224 27.9733 3.76656 18.7681 11.6714 11.1592Z" fill="#FF007A"/>
<path d="M57.4115 41.3003C55.0558 38.4004 51.6963 37.4367 48.5771 36.04C46.8588 35.2714 45.1643 34.4245 43.5469 33.4653C42.2764 32.7129 41.3898 31.5556 41.0295 30.0717C41.0814 30.0407 41.1318 29.9889 41.157 29.9993C43.4876 30.926 45.9738 31.1122 48.414 31.5187C50.408 31.8498 52.3487 32.336 54.058 33.5007C56.6065 35.2374 57.7836 37.8742 57.4115 41.3003Z" fill="#FF007A"/>
<path d="M36.6614 20.8927C41.2735 18.7895 51.036 22.922 52.6638 27.566C49.8766 27.266 47.0732 27.028 44.2905 26.6467C42.0148 26.3348 40.1542 25.182 38.6969 23.4054C38.0164 22.5791 37.3493 21.744 36.6614 20.8927Z" fill="#FF007A"/>
<path d="M53.384 54.7035C53.2906 53.9822 53.2521 53.3023 53.1098 52.6461C52.6042 50.3152 51.2359 48.416 49.9342 46.4856C48.8801 44.9234 47.7549 43.3936 47.2523 41.5387C47.1026 40.9859 47.067 40.4021 46.978 39.833C47.0358 39.7901 47.0937 39.7458 47.1515 39.7029C48.4858 40.4567 49.8363 41.1825 51.1499 41.9717C52.8577 42.9975 54.3996 44.2198 55.0741 46.1886C56.1045 49.1993 55.5678 51.9692 53.639 54.4848C53.5857 54.5557 53.5012 54.6045 53.384 54.7035Z" fill="#FF007A"/>
<path d="M30.001 56.622C28.4577 54.7804 26.7276 53.5994 24.3081 53.1856C24.8136 52.822 25.165 52.5456 25.5386 52.3032C27.8069 50.834 30.2471 49.8836 32.9957 49.9191C36.0601 49.9575 38.2824 51.406 39.1942 53.9867C39.4373 54.6739 39.5663 55.4041 39.6982 56.1239C39.888 57.1541 40.0318 58.1932 40.1341 59.2692C39.7916 58.505 39.4314 57.7483 39.1082 56.9767C38.4188 55.3272 37.5782 53.793 35.9964 52.8101C35.1439 52.281 34.2247 51.9972 33.2048 52.0327C30.7734 52.1184 29.408 53.9497 30.001 56.622Z" fill="#FF007A"/>
<path d="M25.3719 15.7039C27.8684 15.6581 30.03 17.4125 30.7534 20.0346C30.9284 20.6701 31.0989 21.3086 31.2427 21.9516C31.5436 23.2996 32.2389 24.4376 33.0944 25.4959C33.21 25.6393 33.3108 25.796 33.4383 25.9733C29.5822 26.3177 24.6425 21.0027 25.3719 15.7039Z" fill="#FF007A"/>
<path d="M30.9336 47.1661C32.3405 46.2468 33.74 45.7797 35.2048 45.4974C36.3597 45.2743 37.5294 45.1235 38.6872 44.9136C39.1676 44.8264 39.6479 44.7023 40.1075 44.5382C43.2104 43.4415 44.5447 40.8106 43.7352 37.4126C43.7026 37.2737 43.6656 37.1362 43.6166 36.9411C44.8709 38.0969 45.2637 40.6569 44.4765 42.4379C43.4373 44.7909 41.4492 45.8389 39.0401 46.167C37.3411 46.3976 35.6139 46.4168 33.9076 46.6001C32.9691 46.7006 32.0455 46.9489 30.9336 47.1661Z" fill="#FF007A"/>
<path d="M28.9988 34.5374C27.6601 34.5433 27.0686 33.8294 27.3236 32.517C27.5593 31.302 28.4636 30.4315 29.5815 30.3428C30.7734 30.2482 31.8735 30.9709 32.2693 32.0839C32.4961 32.7224 32.379 33.3284 31.8097 33.624C30.9409 34.0748 29.9892 34.3675 29.073 34.7281C29.0478 34.6645 29.0226 34.601 28.9988 34.5374ZM29.6452 32.7135C30.0811 32.6455 30.6889 32.6692 30.7912 31.9583C30.852 31.5341 30.2886 31.0493 29.795 31.0877C29.239 31.1306 28.8965 31.4528 28.8461 32.0174C28.8031 32.514 29.0744 32.7298 29.6452 32.7135Z" fill="#FF007A"/>
</svg>

<svg xmlns="http://www.w3.org/2000/svg" width="73" height="74" fill="none"><circle cx="33" cy="35" r="32" fill="#fff"/><path fill="#FF007A" d="M11.671 11.16C9.403 7.46 7.142 3.775 4.881.092c.042-.03.083-.062.123-.093.337.393.685.777 1.01 1.181 2.42 2.993 4.774 6.04 7.266 8.97 2.57 3.023 5.275 5.934 7.921 8.893 1.815 2.03 3.634 4.053 5.442 6.087.773.87.74 1.784-.059 2.66-.925 1.014-2.154 1.322-3.445 1.449-1.552.152-2.525 1.008-2.773 2.553a17.926 17.926 0 0 0-.182 1.825c-.079 1.398-.543 2.674-1.156 3.915-.347.7-.697 1.412-.931 2.155-.707 2.247.05 4.28 2.098 5.78.533.39 1.101.737 1.626 1.14 1.534 1.18 1.623 2.98.194 4.293-1.451 1.333-3.257 1.952-5.113 2.483-.616.175-.899.057-1.173-.528-.34-.727-.835-1.38-1.254-2.07-1.164-1.913-1.791-3.984-1.164-6.169.311-1.086 1.02-2.107 1.726-3.024 1.44-1.866 2.99-3.66 3.734-5.937.34-1.036.485-2.14.664-3.222.215-1.302.562-2.508 1.545-3.491.652-.652.706-1.487.254-2.307-1.753-3.174-3.465-6.37-5.293-9.497-.646-1.105-1.582-2.044-2.534-2.98.079.173.146.354.24.52 2.23 4.027 4.463 8.053 6.696 12.078.482.867.447 1.151-.23 1.878-1.04 1.116-1.443 2.512-1.542 3.964-.2 2.912-1.63 5.227-3.367 7.435-.845 1.075-1.779 2.137-2.357 3.354-1.202 2.53-.614 5.02.652 7.385.52.97 1.123 1.895 1.662 2.856.153.27.215.591.332.928 2.29.513 4.575.786 6.724-.615a.949.949 0 0 1 .556-.124c2.409.2 4.54.988 6.17 2.872.495.572 1.027 1.13 1.623 1.59 1.246.96 2.86.973 4.054.122 1.234-.883 1.461-2.727.367-3.778.098.356.19.613.237.88a2.048 2.048 0 0 1-2.523 2.364c-1.257-.302-2.086-1.394-2.047-2.696.032-1.145.85-2.023 2.146-2.244 1.43-.242 2.694.253 3.573 1.304.819.977 1.392 2.164 2.026 3.286.407.722.672 1.526 1.1 2.236 1.621 2.69 4.291 3.292 6.933 1.564 1.613-1.056 3.39-1.89 4.68-3.397.104-.123.285-.186.436-.264 4.396-2.309 6.353-7.39 4.613-12.026-.625-1.662-1.767-2.953-3.23-3.908-1.557-1.017-3.18-1.94-4.817-2.831-1.175-.639-2.229-1.338-2.573-2.742-.013.01.033-.043.052-.034 2.732 1.213 5.499 2.359 8.182 3.674 1.646.807 2.936 2.06 3.314 3.985.065.328.092.664.163 1.188.637-.764.932-1.52 1.116-2.308.824-3.517.199-6.674-2.483-9.24-1.606-1.535-3.611-2.354-5.763-2.778-2.093-.413-4.207-.716-6.31-1.087a8.778 8.778 0 0 1-1.345-.37c-1.58-.543-2.945-1.298-2.974-3.24.435.265.919.605 1.44.87 2.014 1.016 4.193 1.333 6.411 1.484 1.297.089 2.599.154 3.89.306 1.627.192 2.91.981 3.77 2.402.05.082.116.156.177.23.012.015.043.014.281.082-.23-.849-.333-1.637-.648-2.33-2.444-5.408-6.59-8.697-12.503-9.52-1.794-.25-3.665-.014-5.496.08-.568.03-.946-.038-1.325-.494-1.68-2.011-3.649-3.662-6.24-4.344-1.053-.276-2.178-.292-3.272-.404-.349-.036-.648.048-.581.523.013.097-.063.213-.116.312-.14.264-.405.517-.421.786-.148 2.436.546 4.64 1.944 6.632.124.176.243.356.44.644-.955-.318-1.754-.62-2.37-1.306A3662.05 3662.05 0 0 0 15.76 11.79c-.673-.743-1.36-1.473-2.043-2.21C24.75.175 44.708-2.285 59.502 10.126c15.312 12.845 17.364 35.51 4.669 50.733-12.925 15.503-35.57 17.43-50.772 5.025C4.895 58.945.367 49.875.02 38.912-.325 27.973 3.767 18.768 11.671 11.16Z"/><path fill="#FF007A" d="M57.411 41.3c-2.355-2.9-5.715-3.863-8.834-5.26-1.718-.769-3.413-1.615-5.03-2.575-1.27-.752-2.157-1.91-2.517-3.393.051-.031.102-.083.127-.073 2.33.927 4.817 1.113 7.257 1.52 1.994.33 3.935.817 5.644 1.982 2.548 1.736 3.726 4.373 3.353 7.8ZM36.661 20.893c4.612-2.104 14.375 2.029 16.003 6.673-2.787-.3-5.59-.538-8.373-.92-2.276-.311-4.137-1.464-5.594-3.24-.68-.827-1.348-1.662-2.036-2.513ZM53.384 54.703c-.093-.72-.132-1.4-.274-2.057-.506-2.33-1.874-4.23-3.176-6.16-1.054-1.563-2.18-3.092-2.682-4.947-.15-.553-.185-1.137-.274-1.706l.173-.13c1.335.754 2.685 1.48 3.999 2.269 1.708 1.026 3.25 2.248 3.924 4.217 1.03 3.01.494 5.78-1.435 8.296-.053.07-.138.12-.255.218ZM30.001 56.622c-1.543-1.842-3.273-3.023-5.693-3.436.506-.364.857-.64 1.23-.883 2.269-1.469 4.71-2.42 7.458-2.384 3.064.039 5.286 1.487 6.198 4.068.243.687.372 1.417.504 2.137.19 1.03.334 2.07.436 3.145-.342-.764-.703-1.52-1.026-2.292-.69-1.65-1.53-3.184-3.112-4.167-.852-.529-1.771-.813-2.791-.777-2.432.085-3.797 1.917-3.204 4.589ZM25.372 15.704c2.496-.046 4.658 1.709 5.381 4.33.175.636.346 1.275.49 1.918.3 1.348.996 2.486 1.851 3.544.116.143.217.3.344.477-3.856.345-8.796-4.97-8.066-10.27ZM30.934 47.166c1.406-.92 2.806-1.386 4.27-1.669 1.156-.223 2.325-.373 3.483-.583.48-.088.96-.212 1.42-.376 3.103-1.096 4.438-3.727 3.628-7.125-.032-.14-.07-.277-.118-.472 1.254 1.156 1.647 3.716.86 5.497-1.04 2.353-3.028 3.4-5.437 3.729-1.699.23-3.426.25-5.132.433-.939.1-1.863.349-2.974.566ZM28.999 34.537c-1.339.006-1.93-.708-1.675-2.02.235-1.215 1.14-2.086 2.257-2.174a2.635 2.635 0 0 1 2.688 1.74c.227.64.11 1.245-.46 1.541-.868.45-1.82.743-2.736 1.104l-.074-.19Zm.646-1.823c.436-.069 1.044-.045 1.146-.756.061-.424-.502-.909-.996-.87-.556.043-.899.365-.949.93-.043.496.228.712.8.696Z"/></svg>
